dist/assets/img/smile.svg

<svg width="40" height="40" viewBox="0 0 40 40" fill="none" xmlns="http://www.w3.org/2000/svg">
<path d="M26.1875 29.0938C24.375 30.3438 22.3125 30.9688 20 30.9688C17.6875 30.9688 15.5938 30.3438 13.7188 29.0938C11.9062 27.7812 10.5938 26.0938 9.78125 24.0312H30.2188C29.4062 26.0938 28.0625 27.7812 26.1875 29.0938ZM15.0312 17.1875C14.4688 17.75 13.7812 18.0312 12.9688 18.0312C12.1562 18.0312 11.4375 17.75 10.8125 17.1875C10.25 16.5625 9.96875 15.8438 9.96875 15.0312C9.96875 14.2188 10.25 13.5312 10.8125 12.9688C11.4375 12.3438 12.1562 12.0312 12.9688 12.0312C13.7812 12.0312 14.4688 12.3438 15.0312 12.9688C15.6562 13.5312 15.9688 14.2188 15.9688 15.0312C15.9688 15.8438 15.6562 16.5625 15.0312 17.1875ZM29.0938 17.1875C28.5312 17.75 27.8438 18.0312 27.0312 18.0312C26.2188 18.0312 25.5 17.75 24.875 17.1875C24.3125 16.5625 24.0312 15.8438 24.0312 15.0312C24.0312 14.2188 24.3125 13.5312 24.875 12.9688C25.5 12.3438 26.2188 12.0312 27.0312 12.0312C27.8438 12.0312 28.5312 12.3438 29.0938 12.9688C29.7188 13.5312 30.0312 14.2188 30.0312 15.0312C30.0312 15.8438 29.7188 16.5625 29.0938 17.1875ZM8.65625 31.3438C11.8438 34.4688 15.625 36.0312 20 36.0312C24.375 36.0312 28.125 34.4688 31.25 31.3438C34.4375 28.1562 36.0312 24.375 36.0312 20C36.0312 15.625 34.4375 11.875 31.25 8.75C28.125 5.5625 24.375 3.96875 20 3.96875C15.625 3.96875 11.8438 5.5625 8.65625 8.75C5.53125 11.875 3.96875 15.625 3.96875 20C3.96875 24.375 5.53125 28.1562 8.65625 31.3438ZM5.84375 5.9375C9.78125 2 14.5 0.03125 20 0.03125C25.5 0.03125 30.1875 2 34.0625 5.9375C38 9.8125 39.9688 14.5 39.9688 20C39.9688 25.5 38 30.2188 34.0625 34.1562C30.1875 38.0312 25.5 39.9688 20 39.9688C14.5 39.9688 9.78125 38.0312 5.84375 34.1562C1.96875 30.2188 0.03125 25.5 0.03125 20C0.03125 14.5 1.96875 9.8125 5.84375 5.9375Z" fill="url(#paint0_linear)"/>
<defs>
<linearGradient id="paint0_linear" x1="20" y1="-4" x2="20" y2="44" gradientUnits="userSpaceOnUse">
<stop stop-color="#BC9CFF"/>
<stop offset="1" stop-color="#8BA4F9"/>
</linearGradient>
</defs>
</svg>

<svg width="40" height="40" viewBox="0 0 40 40" fill="none" xmlns="http://www.w3.org/2000/svg"><path d="M26.188 29.094c-1.813 1.25-3.875 1.875-6.188 1.875-2.313 0-4.406-.625-6.281-1.875-1.813-1.313-3.125-3-3.938-5.063H30.22c-.813 2.063-2.157 3.75-4.032 5.063zM15.03 17.187c-.562.563-1.25.844-2.062.844-.813 0-1.531-.281-2.156-.843-.563-.625-.844-1.344-.844-2.157 0-.812.281-1.5.844-2.062.624-.625 1.343-.938 2.156-.938.812 0 1.5.313 2.062.938.625.562.938 1.25.938 2.062 0 .813-.313 1.531-.938 2.156zm14.063 0c-.563.563-1.25.844-2.063.844-.812 0-1.531-.281-2.156-.843-.563-.625-.844-1.344-.844-2.157 0-.812.282-1.5.844-2.062.625-.625 1.344-.938 2.156-.938.813 0 1.5.313 2.063.938.625.562.937 1.25.937 2.062 0 .813-.312 1.531-.937 2.156zM8.656 31.345C11.844 34.469 15.625 36.03 20 36.03c4.375 0 8.125-1.562 11.25-4.687 3.188-3.188 4.781-6.969 4.781-11.344 0-4.375-1.593-8.125-4.781-11.25-3.125-3.187-6.875-4.78-11.25-4.78S11.844 5.563 8.656 8.75C5.531 11.875 3.97 15.625 3.97 20s1.562 8.156 4.687 11.344zM5.844 5.937C9.78 2 14.5.032 20 .032S30.188 2 34.063 5.938C38 9.813 39.968 14.5 39.968 20S38 30.219 34.062 34.156C30.189 38.031 25.5 39.97 20 39.97S9.781 38.03 5.844 34.156C1.969 30.22.03 25.5.03 20S1.97 9.812 5.844 5.937z" fill="url(#paint0_linear)"/><defs><linearGradient id="paint0_linear" x1="20" y1="-4" x2="20" y2="44" gradientUnits="userSpaceOnUse"><stop stop-color="#BC9CFF"/><stop offset="1" stop-color="#8BA4F9"/></linearGradient></defs></svg>
